X: 6
T: The Mug Of Brown Ale
R: jig
M: 6/8
L: 1/8
K: Ador
|: eAA fAA | gfg age | dBA G2 A | BAB dBd |
eAA fAA | gfg age | dBd gdB | BAG A3 :|
|: efg a3 | aba age | dBd gfg | gag ged |
efg a3 | aba age | dBd gdB | BAG A3 :|


Tune 888	Setting 14075

